frontend/images/ic_config.svg

<svg viewBox="0 0 48 48" xmlns="http://www.w3.org/2000/svg"><path d="m40 45h-32v-42h22l10 10z" fill="#90CAF9"/><path d="m38.5 14h-9.5v-9.5z" fill="#E1F5FE"/><path d="m18.3 34.7l-6.7-6.7 6.7-6.7 1.4 1.4-5.3 5.3 5.3 5.3-1.4 1.4zm18.1-6.7l-6.7-6.7-1.4 1.4 5.3 5.3-5.3 5.3 1.4 1.4 6.7-6.7zm-8.5-11.4l-1.9-0.6-5.9 23.4 1.9 0.6 5.9-23.4z" fill="#1976D2"/></svg>

<svg xmlns="http://www.w3.org/2000/svg" viewBox="0 0 48 48">
<path fill="#90CAF9" d="M40 45L8 45 8 3 30 3 40 13z"></path>
<path fill="#E1F5FE" d="M38.5 14L29 14 29 4.5z"></path>
<path fill="#1976D2" d="M18.3,34.7L11.6,28l6.7-6.7l1.4,1.4L14.4,28l5.3,5.3L18.3,34.7z M36.4,28l-6.7-6.7l-1.4,1.4l5.3,5.3l-5.3,5.3l1.4,1.4L36.4,28z M27.9,16.6L26,16l-5.9,23.4L22,40L27.9,16.6z"></path>
</svg>
